src/telerik-icons/solid/page-header-section.svg

<?xml version="1.0" encoding="utf-8"?>
<svg xmlns="http://www.w3.org/2000/svg" width="512" height="512" viewBox="0 0 512 512">
  <path d="M352 32H96c-17.7 0-32 14.3-32 32v384c0 17.7 14.3 32 32 32h320c17.7 0 32-14.3 32-32V128l-96-96zm64 416H96V64h224v96h96v288zm-32-160H128v-96h256v96zm0 96H128v32h256v-32zm0-64H128v32h256v-32z"/>
</svg>

<?xml version="1.0" encoding="utf-8"?>
<!-- Generator: Adobe Illustrator 24.2.0, SVG Export Plug-In . SVG Version: 6.00 Build 0)  -->
<svg xmlns="http://www.w3.org/2000/svg" width="512" height="512" viewBox="0 0 512 512">
<path d="M352,32H96c-17.7,0-32,14.3-32,32v384c0,17.7,14.3,32,32,32h320c17.7,0,32-14.3,32-32V128L352,32z M416,448H96V64h224v96h96
	V448z M384,288H128v-96h256V288z M384,384H128v32h256V384z M384,320H128v32h256V320z" />
</svg>
